icons/xtend.svg

<?xml version="1.0" encoding="UTF-8" standalone="no"?>
<svg width="256px" height="212px" viewBox="0 0 256 212" version="1.1" xmlns="http://www.w3.org/2000/svg" xmlns:xlink="http://www.w3.org/1999/xlink" preserveAspectRatio="xMidYMid">
    <g>
        <path d="M44.9395214,8.2808 L125.043521,103.8848 L40.2525214,203.8108 C37.8005214,206.7008 39.8545214,211.1368 43.6445214,211.1368 L74.7655214,211.1368 C76.2635214,211.1368 77.6855214,210.4798 78.6545214,209.3378 L170.266521,101.5118 L88.3855214,2.5898 C87.1455214,1.0918 85.3015214,0.2248 83.3565214,0.2248 L48.6995214,0.2248 C44.5345214,0.2248 42.2645214,5.0878 44.9395214,8.2808 Z M4.67812141,33.8286 L63.7681214,104.1476 L0.710121406,178.6676 C-0.926878594,180.6016 0.448121406,183.5656 2.98112141,183.5656 L29.1101214,183.5656 L98.4261214,102.5976 L34.3231214,26.6596 L8.01812141,26.6596 C4.31112141,26.6596 2.29312141,30.9906 4.67812141,33.8286 Z M207.968021,2.137 L157.748021,63.516 L181.915021,89.693 L250.114021,9.01 C253.123021,5.451 250.593021,0 245.933021,0 L212.477021,0 C210.730021,0 209.075021,0.785 207.968021,2.137 Z M155.737821,136.1784 L216.741821,209.4214 C217.647821,210.5084 218.988821,211.1374 220.403821,211.1374 L251.197821,211.1374 C255.284821,211.1374 257.496821,206.3504 254.847821,203.2374 L177.479821,112.3354 L155.737821,136.1784 Z" fill="#000000"></path>
    </g>
</svg>

<svg xmlns="http://www.w3.org/2000/svg" viewBox="0 0 256 211.137">
  <path d="m44.94 8.28 80.104 95.605-84.791 99.926c-2.452 2.89-.398 7.326 3.392 7.326h31.12c1.499 0 2.92-.657 3.89-1.8l91.612-107.825L88.386 2.59a6.529 6.529 0 0 0-5.03-2.365H48.7c-4.165 0-6.435 4.863-3.76 8.056zM4.678 33.83l59.09 70.319L.71 178.668c-1.637 1.934-.262 4.898 2.271 4.898h26.13l69.315-80.968L34.323 26.66H8.018c-3.707 0-5.725 4.33-3.34 7.169zm203.29-31.692-50.22 61.379 24.167 26.177L250.114 9.01c3.009-3.559.479-9.01-4.181-9.01h-33.456a5.829 5.829 0 0 0-4.509 2.137zm-52.23 134.041 61.004 73.243a4.767 4.767 0 0 0 3.662 1.716h30.794c4.087 0 6.299-4.787 3.65-7.9l-77.368-90.902z"/>
</svg>
